!!!COM:	Praetorius, Michael
!!!OTL:	O Mensch bewein dein Suende gross
**kern	**kern	**kern	**kern
*ICvox	*ICvox	*ICvox	*ICvox
*I"Bassus	*I"Tenor	*I"Altus	*I"Diskantus
*clefF4	*clefGv2	*clefG2	*clefG2
*k[b-]	*k[b-]	*k[b-]	*k[b-]
*M2/2	*M2/2	*M2/2	*M2/2
*met(c|)	*met(c|)	*met(c|)	*met(c|)
1F	1A	1c	1f
2B-	2B-	2d	2f
2G	2B-	2e	2g
2F	2c	2f	2a
2BB-	2B-	2d	2f
2F	2A	2c	2a
2D	2F	2d	2b-
1C	1G	1e	1cc
=	=	=	=
1F	1A	1f	1cc
2BB-	2d	2f	2b-
2F	2.c	2f	2a
2E	.	2c	2g
.	4G	.	.
2D	2A	2d	2f
2F	2A	2c	2a
2D	2F	2d	2b-
1C	1G	1e	1cc
=	=	=	=
1G	1B-	1g	1dd
2.A	2.c	2e	2.cc
.	.	2f	.
4B-	4d	.	4b-
2F	2c	4f	2a
.	.	4f	.
2BB-	2d	2.f	2b-
1C	1c	.	1g
.	.	8eL	.
.	.	8dJ	.
.	.	2e	.
1F	1A	1c	1f
=:|	=:|	=:|	=:|
1D	1A	1d	1ff
2F	2A	2c	2ff
2D	2A	2d	2ff
2A	2c	2e	2ee
2A	2c	2f	2cc
2B-	2F	2d	2dd
2G	2B-	2d	2dd
1F	1c	1f	1a
=	=	=	=
1F	1c	1a	1ff
2B-	2d	2b-	2ff
2A	2.c	2f	2ff
2c	.	2g	2ee
.	2c	.	.
2A	.	2f	2cc
.	4c	.	.
2G	2Bn	2d	2dd
2G	2B	2g	2dd
1C	1c	1e	1cc
=	=	=	=
1D	1f	1d	1a
2A	2e	2c	2cc
2B-	2d	2f	2dd
2A	2e	2c	2cc
2F	2f	2c	2a
1G	1d	1g	1b-
1D	1d	1f#	1a
=	=	=	=
1E	1G	1c	1g
2F	2c	2fn	2a
2G	2B-	2d	2b-
2.C	2.e-	2.g	2.cc
4G	4d	4g	4b-
2D	2d	2f#	2a
2D	2d	2f#	2a
1G	1Bn	1g	1g
=	=	=	=
1F	1c	1a	1cc
2D	2f	2a	2dd
2A	2c	1a	2ee
2d	2f	.	2ff
2c	2g	2cc	2ee
2G	2g	2cc	2dd
2G	2g	2b-	2dd
1c	1en	2a	1cc
.	.	2g	.
=	=	=	=
1B-	1d	1b-	1f
2G	2.d	2b-	2g
2F	.	2a	2a
.	4c	.	.
2E-	2e-	2g	2b-
2F	2c	2f	2a
0C	1.c	2e	2g
.	.	2.f	2a
.	.	.	1g
.	.	8eL	.
.	.	8dJ	.
.	1c	2e	.
00F	.	1d	00f
.	[2B-	.	.
.	2B-]	0.c	.
.	4A	.	.
.	4G	.	.
.	1A	.	.
.	1A	.	.
==	==	==	==
*-	*-	*-	*-
